X: 041060
T: Dingle Bay
S: "Sully's Irish Music Book"
Z: B.Black 
L: 1/8
M: 4/4
R: hornpipe
K: G
dc|BGFG EDB,D|GBAG (3EFG (3DEF|GABd gdBd|\
cBAG FGdc|
BGFG EDB,D|GBAG (3EFG (3DEF|GABd gdcA|B2 G2 G2 :|
(3ABc|dg g2 bg g2|dgbg agfg|a^gab c'ba=g|fgfe dcBc|
dg g2 bg g2|dgbg (3efg dc|Bdgd ABcA|B2 G2 G2 :|
